X: 9866
T:Thistle of Scotland
R:March
O:Scotland
M:4/4
L:1/8
K:A
EF|A2Ac A2AF|E2EF E2A>B|c2BA A2ec|B2B>c B2EF|!
A2Ac A2AF|E2E>F E2A>B|cece E2c>B|A2A>B A2||!
AB|c2ce c2BA|F2FA E2A>B|c2BA e2Ac|B2B>c B2E>F|!
A>Bce c2BA|F2FA E2A>B|cece|E2c>B|!
A2A>B A2||!
